icons/white/_7zipper.svg

<svg xmlns="http://www.w3.org/2000/svg" viewBox="0 0 48 48"><defs><style>.a,.b{fill:none;stroke:#fff;stroke-linejoin:round;}.a{stroke-linecap:round;}</style></defs><path class="a" d="M23.026,21.105V6.5h1.948V21.105m-2.921.027v1.947l.974.974h1.948l.974-.974V21.132"/><path class="b" d="M24,24.053l-.974.974v1.948l.974.974.974-.974V25.027Z"/><path class="a" d="M22.053,21.132h3.895m-2.922-2.948h1.948m-1.948-2.921h1.948m-1.948-2.921h1.948M23.026,9.421h1.948M18,34.7h4L18,40h4m-9.5,0,4.3-8H11.5"/><path class="b" d="M37.5,4.5h-27a2,2,0,0,0-2,2v35a2,2,0,0,0,2,2h27a2,2,0,0,0,2-2V6.5A2,2,0,0,0,37.5,4.5Z"/></svg>

<?xml version="1.0" encoding="UTF-8"?><svg id="a" xmlns="http://www.w3.org/2000/svg" viewBox="0 0 48 48"><defs><style>.b,.c{fill:none;stroke:#fff;stroke-linejoin:round;}.c{stroke-linecap:round;}</style></defs><path class="c" d="M23.026,21.105V6.5h1.948v14.605M22.053,21.132v1.947l.974.974h1.948l.974-.974v-1.947"/><path class="b" d="M24,24.053l-.974.974v1.948l.974.974.974-.974v-1.948l-.974-.974Z"/><path class="c" d="M22.053,21.132h3.895M23.026,18.184h1.948M23.026,15.263h1.948M23.026,12.342h1.948M23.026,9.421h1.948M18,34.7h4l-4,5.3h4M12.5,40l4.3-8h-5.3"/><path class="b" d="M35.5,4.5H12.5c-2.2091,0-4,1.7909-4,4v31c0,2.2091,1.7909,4,4,4h23c2.2091,0,4-1.7909,4-4V8.5c0-2.2091-1.7909-4-4-4Z"/></svg>
